lib/flags/mp-northern-mariana-islands.svg

<svg xmlns="http://www.w3.org/2000/svg" fill="none" aria-hidden="true" viewBox="0 0 42 30"><g id="Country=MP - Northern Mariana Islands, Size=sm (36x24)" filter="url(#filter0_dd_91_26404)"><g clip-path="url(#clip0_91_26404)"><g id="flag"><mask id="mask0_91_26404" width="36" height="24" x="3" y="2" maskUnits="userSpaceOnUse" style="mask-type:alpha"><rect id="mask" width="36" height="24" x="3" y="2" fill="white"/></mask><g mask="url(#mask0_91_26404)"><g id="contents"><path id="background" fill="#2993EC" fill-rule="evenodd" d="M3 2H41.25V26H3V2Z" clip-rule="evenodd"/><g id="mark"><path id="Oval 38" fill="#F1F9FF" fill-rule="evenodd" d="M9.98975 13.5833C9.98975 18.8761 14.9194 23.1667 21.0004 23.1667C27.0814 23.1667 32.011 18.8761 32.011 13.5833C32.011 8.2906 27.0814 4 21.0004 4C14.9194 4 9.98975 8.2906 9.98975 13.5833ZM29.6174 13.5833C29.6174 17.7255 25.7594 21.0833 21.0004 21.0833C16.2413 21.0833 12.3834 17.7255 12.3834 13.5833C12.3834 9.44119 16.2413 6.08333 21.0004 6.08333C25.7594 6.08333 29.6174 9.44119 29.6174 13.5833Z" clip-rule="evenodd"/><path id="Oval 38_2" fill="#E31D1C" fill-rule="evenodd" d="M10.9473 13.5835C10.9473 18.416 15.4482 22.3335 21.0005 22.3335C26.5527 22.3335 31.0536 18.416 31.0536 13.5835C31.0536 8.751 26.5527 4.8335 21.0005 4.8335C15.4482 4.8335 10.9473 8.751 10.9473 13.5835ZM30.575 13.5835C30.575 18.1859 26.2883 21.9168 21.0005 21.9168C15.7127 21.9168 11.426 18.1859 11.426 13.5835C11.426 8.98113 15.7127 5.25017 21.0005 5.25017C26.2883 5.25017 30.575 8.98113 30.575 13.5835Z" clip-rule="evenodd"/><path id="Rectangle 49" fill="#FDDA33" fill-rule="evenodd" d="M21.0002 4.2085C20.8789 4.43117 20.8182 4.74759 20.8182 5.15777C20.8182 5.56794 20.6395 5.97853 20.2821 6.38953C20.2158 5.93703 20.1826 5.52644 20.1826 5.15777C20.1826 4.78909 20.4551 4.47267 21.0002 4.2085ZM23.516 4.54712C23.3414 4.73981 23.2022 5.03599 23.0984 5.43565C22.9946 5.83531 22.7166 6.19965 22.2644 6.52866C22.3142 6.07448 22.3858 5.66778 22.4791 5.30856C22.5724 4.94934 22.918 4.69552 23.516 4.54712ZM25.2449 6.16804C25.4544 5.80257 25.67 5.54512 25.8919 5.39569C25.2713 5.4111 24.8668 5.58305 24.6785 5.91154C24.4903 6.24003 24.3101 6.61926 24.1381 7.04923C24.6665 6.82723 25.0354 6.5335 25.2449 6.16804ZM27.9653 6.68416C27.7113 6.78539 27.436 6.99312 27.1394 7.30733C26.8428 7.62154 26.409 7.83397 25.838 7.94463C26.1144 7.56007 26.3859 7.22658 26.6525 6.94416C26.9191 6.66174 27.3567 6.57507 27.9653 6.68416ZM28.6816 8.79626C29.0501 8.54941 29.3709 8.40206 29.644 8.3542C29.0786 8.12622 28.6303 8.12317 28.2991 8.34504C27.9678 8.56692 27.6189 8.83757 27.2523 9.15702C27.8366 9.16336 28.3131 9.04311 28.6816 8.79626ZM30.8401 10.3364C30.5621 10.3241 30.2107 10.3981 29.7859 10.5584C29.3611 10.7186 28.8661 10.7329 28.3009 10.6011C28.7435 10.3699 29.1558 10.1823 29.5376 10.0383C29.9193 9.89425 30.3535 9.99362 30.8401 10.3364ZM30.3968 12.4911C30.8512 12.4198 31.2123 12.418 31.4801 12.4856C31.0928 12.0543 30.6949 11.8706 30.2864 11.9347C29.8779 11.9987 29.4288 12.099 28.939 12.2357C29.4564 12.4772 29.9423 12.5623 30.3968 12.4911ZM9.84471 11.7698C10.0703 11.9147 10.4104 12.0228 10.8648 12.094C11.3192 12.1652 11.7431 12.393 12.1364 12.7772C11.6235 12.7567 11.1629 12.7144 10.7544 12.6504C10.346 12.5864 10.0427 12.2929 9.84471 11.7698ZM11.5741 10.1872C11.1493 10.027 10.8453 9.8537 10.6622 9.66739C10.7227 10.2166 10.9439 10.5633 11.3257 10.7073C11.7075 10.8514 12.1457 10.9846 12.6402 11.1071C12.3542 10.6541 11.9988 10.3475 11.5741 10.1872ZM12.0308 7.77376C12.1578 7.99392 12.4056 8.22742 12.7741 8.47427C13.1426 8.72112 13.404 9.09506 13.5582 9.5961C13.1117 9.3709 12.7228 9.14736 12.3916 8.92549C12.0603 8.70361 11.9401 8.3197 12.0308 7.77376ZM14.3909 7.04818C14.0943 6.73397 13.9119 6.4569 13.8439 6.21698C13.6173 6.7308 13.6374 7.12892 13.904 7.41134C14.1706 7.69376 14.4929 7.98933 14.871 8.29804C14.8475 7.77901 14.6875 7.36239 14.3909 7.04818ZM16.0195 5.06573C16.025 5.31311 16.1326 5.61953 16.3421 5.985C16.5516 6.35047 16.6021 6.78841 16.4936 7.29883C16.2033 6.92243 15.964 6.56999 15.7758 6.2415C15.5875 5.91301 15.6687 5.52109 16.0195 5.06573ZM18.5264 5.34497C18.4226 4.94531 18.4016 4.62486 18.4635 4.38363C17.9993 4.75002 17.8138 5.11284 17.9071 5.47206C18.0004 5.83128 18.1366 6.22471 18.3158 6.65234C18.56 6.18042 18.6302 5.74462 18.5264 5.34497Z" clip-rule="evenodd"/><path id="Combined Shape" fill="#A7A7A7" fill-rule="evenodd" d="M19.3398 7.75C18.9669 7.75 18.6928 8.09973 18.782 8.4618L19.2172 10.2295C19.2541 10.3796 19.3482 10.5037 19.4728 10.5808C19.3585 10.6705 19.2786 10.803 19.258 10.9565L17.6995 22.5839C17.669 22.8111 17.7761 23.0339 17.9804 23.1379C18.5659 23.4359 19.843 24 21.12 24C22.397 24 23.6741 23.4359 24.2596 23.1379C24.4639 23.0339 24.571 22.8111 24.5406 22.5839L22.982 10.9565C22.9614 10.803 22.8815 10.6705 22.7672 10.5808C22.8918 10.5037 22.9859 10.3796 23.0228 10.2295L23.4581 8.4618C23.5472 8.09973 23.2731 7.75 22.9002 7.75H19.3398Z" clip-rule="evenodd"/><path id="Path 187" fill="#73BE4A" d="M10.3345 14.0126C10.3925 13.8476 10.5932 13.7548 10.7829 13.8053C10.9725 13.8558 11.0791 14.0305 11.0211 14.1955C10.9207 14.4811 10.9207 14.9028 11.0315 15.4546C11.074 15.6663 11.1245 15.8297 11.1866 15.974C11.2113 16.0315 11.2369 16.0842 11.2711 16.1495C11.2559 16.1204 11.3393 16.278 11.3596 16.3188C11.4669 16.5347 11.5144 16.7239 11.5144 17.0011C11.5144 17.1737 11.3536 17.3136 11.1553 17.3136C10.9571 17.3136 10.7963 17.1737 10.7963 17.0011C10.7963 16.8117 10.7699 16.7065 10.7006 16.567C10.6842 16.5341 10.6063 16.3869 10.6176 16.4086C10.5771 16.3312 10.5454 16.2659 10.5141 16.1932C10.4362 16.0121 10.3741 15.8113 10.3241 15.5622C10.1956 14.922 10.1956 14.4076 10.3345 14.0126Z"/><path id="Star 20" fill="#F7FCFF" fill-rule="evenodd" d="M21.2397 18.1793L16.6109 20.9828L18.2439 16.2849L13.7502 13.3196L19.3882 13.2196L21.2397 8.5835L23.0913 13.2196L28.7293 13.3196L24.2356 16.2849L25.8686 20.9828L21.2397 18.1793Z" clip-rule="evenodd"/><path id="Path 187_2" fill="#73BE4A" d="M31.7544 14.4296C31.6964 14.2646 31.4956 14.1718 31.306 14.2223C31.1164 14.2728 31.0097 14.4475 31.0677 14.6125C31.1681 14.8981 31.1681 15.3198 31.0574 15.8716C31.0149 16.0833 30.9644 16.2467 30.9023 16.391C30.8775 16.4485 30.852 16.5012 30.8178 16.5665C30.833 16.5374 30.7495 16.695 30.7292 16.7358C30.6219 16.9517 30.5745 17.1409 30.5745 17.4181C30.5745 17.5907 30.7352 17.7306 30.9335 17.7306C31.1318 17.7306 31.2926 17.5907 31.2926 17.4181C31.2926 17.2287 31.3189 17.1235 31.3883 16.984C31.4046 16.9511 31.4826 16.8039 31.4712 16.8256C31.5118 16.7482 31.5435 16.6829 31.5748 16.6102C31.6527 16.4291 31.7148 16.2283 31.7648 15.9791C31.8932 15.339 31.8932 14.8246 31.7544 14.4296Z"/><path id="Path 188" stroke="#73BE4A" stroke-linecap="round" stroke-linejoin="round" d="M21.0688 5.14746C21.0688 5.14746 22.3788 5.66619 21.813 6.48295"/><path id="Path 188_2" stroke="#73BE4A" stroke-linecap="round" stroke-linejoin="round" d="M22.0259 5.14746C22.0259 5.14746 23.3358 5.66619 22.7701 6.48295"/><path id="Path 189" fill="#73BE4A" d="M13.4177 8.35669C13.5127 8.21057 13.7121 8.16657 13.8632 8.25841C14.0143 8.35026 14.0598 8.54317 13.9649 8.68929C13.7826 8.96964 13.6878 9.35429 13.6878 9.84749C13.6878 10.0201 13.5431 10.16 13.3646 10.16C13.1862 10.16 13.0415 10.0201 13.0415 9.84749C13.0415 9.24474 13.1644 8.74639 13.4177 8.35669Z"/><path id="Path 190" fill="#73BE4A" d="M12.9099 11.2126C12.9099 11.3852 12.7653 11.5251 12.5868 11.5251C12.4083 11.5251 12.2637 11.3852 12.2637 11.2126V10.3224C12.2637 9.69254 12.3748 9.19651 12.6092 8.83428C12.7039 8.68797 12.9032 8.64358 13.0545 8.73513C13.2058 8.82667 13.2517 9.01949 13.1571 9.1658C12.9963 9.4142 12.9099 9.79974 12.9099 10.3224V11.2126Z"/><path id="Path 190_2" fill="#73BE4A" d="M29.4201 10.7961C29.4201 10.9687 29.5648 11.1086 29.7433 11.1086C29.9217 11.1086 30.0664 10.9687 30.0664 10.7961V9.90591C30.0664 9.27604 29.9553 8.78001 29.7209 8.41778C29.6262 8.27147 29.4268 8.22708 29.2756 8.31862C29.1243 8.41017 29.0784 8.60299 29.173 8.7493C29.3337 8.99769 29.4201 9.38324 29.4201 9.90591V10.7961Z"/><path id="Path 190_3" fill="#73BE4A" d="M30.3772 12.2541C30.3772 12.4267 30.5218 12.5666 30.7003 12.5666C30.8788 12.5666 31.0234 12.4267 31.0234 12.2541V11.3639C31.0234 10.734 30.9123 10.238 30.6779 9.87579C30.5833 9.72948 30.3839 9.68508 30.2326 9.77663C30.0813 9.86818 30.0354 10.061 30.1301 10.2073C30.2908 10.4557 30.3772 10.8412 30.3772 11.3639V12.2541Z"/></g></g></g></g></g></g><defs><filter id="filter0_dd_91_26404" width="42" height="30" x="0" y="0" color-interpolation-filters="sRGB" filterUnits="userSpaceOnUse"><feFlood flood-opacity="0" result="BackgroundImageFix"/><feColorMatrix in="SourceAlpha" result="hardAlpha" values="0 0 0 0 0 0 0 0 0 0 0 0 0 0 0 0 0 0 127 0"/><feOffset dy="1"/><feGaussianBlur stdDeviation="1"/><feColorMatrix values="0 0 0 0 0.0627451 0 0 0 0 0.0941176 0 0 0 0 0.156863 0 0 0 0.06 0"/><feBlend in2="BackgroundImageFix" result="effect1_dropShadow_91_26404"/><feColorMatrix in="SourceAlpha" result="hardAlpha" values="0 0 0 0 0 0 0 0 0 0 0 0 0 0 0 0 0 0 127 0"/><feOffset dy="1"/><feGaussianBlur stdDeviation="1.5"/><feColorMatrix values="0 0 0 0 0.0627451 0 0 0 0 0.0941176 0 0 0 0 0.156863 0 0 0 0.1 0"/><feBlend in2="effect1_dropShadow_91_26404" result="effect2_dropShadow_91_26404"/><feBlend in="SourceGraphic" in2="effect2_dropShadow_91_26404" result="shape"/></filter><clipPath id="clip0_91_26404"><rect width="36" height="24" x="3" y="2" fill="white" rx="2"/></clipPath></defs></svg>

<svg xmlns="http://www.w3.org/2000/svg" fill="none" aria-hidden="true" viewBox="0 0 42 30"><g filter="url(#a)"><g clip-path="url(#b)"><mask id="c" width="36" height="24" x="3" y="2" maskUnits="userSpaceOnUse" style="mask-type:alpha"><path fill="#fff" d="M3 2h36v24H3z"/></mask><g mask="url(#c)"><path fill="#2993EC" fill-rule="evenodd" d="M3 2h38.25v24H3V2Z" clip-rule="evenodd"/><path fill="#F1F9FF" fill-rule="evenodd" d="M9.99 13.583c0 5.293 4.93 9.584 11.01 9.584 6.081 0 11.011-4.29 11.011-9.584 0-5.292-4.93-9.583-11.01-9.583C14.918 4 9.99 8.29 9.99 13.583Zm19.627 0c0 4.143-3.858 7.5-8.617 7.5s-8.617-3.357-8.617-7.5c0-4.142 3.858-7.5 8.617-7.5 4.76 0 8.617 3.358 8.617 7.5Z" clip-rule="evenodd"/><path fill="#E31D1C" fill-rule="evenodd" d="M10.947 13.584c0 4.832 4.501 8.75 10.053 8.75 5.553 0 10.054-3.918 10.054-8.75 0-4.833-4.501-8.75-10.053-8.75-5.553 0-10.054 3.917-10.054 8.75Zm19.628 0c0 4.602-4.287 8.333-9.575 8.333-5.287 0-9.574-3.731-9.574-8.334 0-4.602 4.287-8.333 9.574-8.333 5.288 0 9.575 3.731 9.575 8.334Z" clip-rule="evenodd"/><path fill="#FDDA33" fill-rule="evenodd" d="M21 4.208c-.121.223-.182.54-.182.95 0 .41-.178.82-.536 1.232a8.565 8.565 0 0 1-.1-1.232c0-.369.273-.685.818-.95Zm2.516.34c-.175.192-.314.488-.418.888-.103.4-.381.764-.834 1.093.05-.455.122-.861.215-1.22.093-.36.439-.613 1.037-.762Zm1.729 1.62c.21-.365.425-.623.647-.772-.62.015-1.025.187-1.213.516a9.078 9.078 0 0 0-.54 1.137c.527-.222.896-.516 1.106-.881Zm2.72.516c-.254.101-.529.31-.826.623-.296.315-.73.527-1.301.638a9.74 9.74 0 0 1 .814-1c.267-.283.705-.37 1.313-.26Zm.717 2.112c.368-.247.689-.394.962-.442-.565-.228-1.014-.23-1.345-.009-.331.222-.68.493-1.047.812.585.006 1.061-.114 1.43-.36Zm2.158 1.54c-.278-.012-.63.062-1.054.222-.425.16-.92.175-1.485.043.443-.231.855-.419 1.237-.563.381-.144.816-.044 1.302.298Zm-.443 2.155c.454-.071.815-.073 1.083-.005-.387-.432-.785-.615-1.194-.551a12.08 12.08 0 0 0-1.347.3c.517.242 1.003.327 1.458.256ZM9.845 11.77c.225.145.565.253 1.02.324.454.071.878.299 1.271.683a12.12 12.12 0 0 1-1.382-.127c-.408-.064-.711-.357-.91-.88Zm1.73-1.583c-.426-.16-.73-.333-.913-.52.06.55.282.896.664 1.04.381.144.82.278 1.314.4-.286-.453-.641-.76-1.066-.92Zm.456-2.413c.127.22.375.453.743.7.369.247.63.621.784 1.122a11.034 11.034 0 0 1-1.166-.67c-.332-.222-.452-.606-.361-1.152Zm2.36-.726c-.297-.314-.48-.591-.547-.831-.227.514-.207.912.06 1.194.267.283.589.578.967.887-.024-.519-.184-.936-.48-1.25Zm1.629-1.982c.005.247.113.554.322.919.21.365.26.803.152 1.314a9.438 9.438 0 0 1-.718-1.058c-.188-.328-.107-.72.244-1.175Zm2.506.279c-.103-.4-.124-.72-.063-.961-.464.366-.65.729-.556 1.088.093.36.23.753.409 1.18.244-.472.314-.907.21-1.307Z" clip-rule="evenodd"/><path fill="#A7A7A7" fill-rule="evenodd" d="M19.34 7.75a.574.574 0 0 0-.558.712l.435 1.768c.037.15.131.274.256.35a.573.573 0 0 0-.215.377L17.7 22.584a.534.534 0 0 0 .28.554c.586.298 1.863.862 3.14.862 1.277 0 2.554-.564 3.14-.862a.535.535 0 0 0 .28-.554l-1.558-11.627a.573.573 0 0 0-.215-.376.574.574 0 0 0 .256-.351l.435-1.768a.575.575 0 0 0-.558-.712h-3.56Z" clip-rule="evenodd"/><path fill="#73BE4A" d="M10.335 14.013c.057-.165.258-.258.448-.208.19.05.296.226.238.39-.1.286-.1.708.01 1.26a2.537 2.537 0 0 0 .24.694l.089.17a1.4 1.4 0 0 1 .154.682c0 .173-.16.313-.359.313-.198 0-.359-.14-.359-.313a.852.852 0 0 0-.095-.434l-.083-.158a3.042 3.042 0 0 1-.104-.216 3.12 3.12 0 0 1-.19-.63c-.128-.641-.128-1.155.01-1.55Z"/><path fill="#F7FCFF" fill-rule="evenodd" d="m21.24 18.18-4.63 2.803 1.634-4.698-4.494-2.965 5.638-.1 1.852-4.636 1.851 4.636 5.638.1-4.493 2.965 1.633 4.698-4.63-2.804Z" clip-rule="evenodd"/><path fill="#73BE4A" d="M31.754 14.43c-.058-.165-.258-.258-.448-.208-.19.05-.296.226-.238.39.1.286.1.708-.01 1.26a2.563 2.563 0 0 1-.156.519c-.024.058-.05.11-.084.176.015-.03-.069.128-.089.169a1.4 1.4 0 0 0-.154.682c0 .173.16.313.358.313.199 0 .36-.14.36-.313 0-.19.026-.294.095-.434l.083-.158c.04-.078.073-.143.104-.216a3.12 3.12 0 0 0 .19-.63c.128-.641.128-1.155-.01-1.55Z"/><path stroke="#73BE4A" stroke-linecap="round" stroke-linejoin="round" d="M21.069 5.147s1.31.52.744 1.336m.213-1.336s1.31.52.744 1.336"/><path fill="#73BE4A" d="M13.418 8.357a.33.33 0 0 1 .445-.099.307.307 0 0 1 .102.431c-.182.28-.277.665-.277 1.158a.318.318 0 0 1-.323.313.318.318 0 0 1-.324-.313c0-.602.123-1.1.377-1.49Z"/><path fill="#73BE4A" d="M12.91 11.213a.318.318 0 0 1-.323.312.318.318 0 0 1-.323-.312v-.89c0-.63.11-1.126.345-1.489a.33.33 0 0 1 .446-.099.307.307 0 0 1 .102.43c-.16.25-.247.635-.247 1.157v.89Zm16.51-.417c0 .173.145.313.323.313.179 0 .323-.14.323-.313v-.89c0-.63-.11-1.126-.345-1.488a.33.33 0 0 0-.445-.1.307.307 0 0 0-.103.431c.16.249.247.634.247 1.157v.89Z"/><path fill="#73BE4A" d="M30.377 12.254c0 .173.145.313.323.313.179 0 .323-.14.323-.313v-.89c0-.63-.11-1.126-.345-1.488a.33.33 0 0 0-.445-.1.306.306 0 0 0-.103.431c.16.249.247.634.247 1.157v.89Z"/></g></g></g><defs><clipPath id="b"><rect width="36" height="24" x="3" y="2" fill="#fff" rx="2"/></clipPath><filter id="a" width="42" height="30" x="0" y="0" color-interpolation-filters="sRGB" filterUnits="userSpaceOnUse"><feFlood flood-opacity="0" result="BackgroundImageFix"/><feColorMatrix in="SourceAlpha" result="hardAlpha" values="0 0 0 0 0 0 0 0 0 0 0 0 0 0 0 0 0 0 127 0"/><feOffset dy="1"/><feGaussianBlur stdDeviation="1"/><feColorMatrix values="0 0 0 0 0.0627451 0 0 0 0 0.0941176 0 0 0 0 0.156863 0 0 0 0.06 0"/><feBlend in2="BackgroundImageFix" result="effect1_dropShadow_91_26404"/><feColorMatrix in="SourceAlpha" result="hardAlpha" values="0 0 0 0 0 0 0 0 0 0 0 0 0 0 0 0 0 0 127 0"/><feOffset dy="1"/><feGaussianBlur stdDeviation="1.5"/><feColorMatrix values="0 0 0 0 0.0627451 0 0 0 0 0.0941176 0 0 0 0 0.156863 0 0 0 0.1 0"/><feBlend in2="effect1_dropShadow_91_26404" result="effect2_dropShadow_91_26404"/><feBlend in="SourceGraphic" in2="effect2_dropShadow_91_26404" result="shape"/></filter></defs></svg>
